X: 1047
T: Aly's
R: waltz
M: 3/4
K: Fmajor
|:C/ F>G|A2- A>d- (3dcA|G2- G>d c>A|F2- F>G F>E|D2 E2 F2|
C2 F2 A2|B4 A>G|F>C- C2 A>^G|G2- G>C F>G|
A2- A>d- (3dcA|G2- G>d c>A|F2- F>G F>E|D2 E2 F2|
C2 F2 A2|B2- B>A G>F|D>F- F2 E2|F2- F3/2:|
|:G/ A>c|d2- d>e- e>f|c2- c>e- e>f|B2- B>A G>F|A6|
A2- A>=B (3^cBA|d4 c>B|A<c F2 E>F|G2- G>C F>G|
A2- A>d- (3dcA|G2- G>d c>A|F2- F>G F>E|D2 E2 F2|
C2 F2 A2|B2- B>A G>F|D>F- F2 E2|F2- F3/2:|

